svgs/current_activity.svg

<svg xmlns="http://www.w3.org/2000/svg" width="192" height="192" fill="none" viewBox="0 0 192 192"><path stroke="#000" stroke-linecap="round" stroke-width="12" d="M162 78v56c0 19.882-16.118 36-36 36H58c-19.882 0-36-16.118-36-36V66c0-19.882 16.118-36 36-36h56"/><circle cx="155" cy="37" r="15" stroke="#000" stroke-width="12"/><path stroke="#000" stroke-linecap="round" stroke-linejoin="round" stroke-width="12" d="m59 119.5 22-29 26 19 22.5-28"/></svg>

<svg width="192" height="192" viewBox="0 0 192 192" fill="none" xmlns="http://www.w3.org/2000/svg">
<path d="M162 78V134C162 153.882 145.882 170 126 170H58C38.1177 170 22 153.882 22 134V66C22 46.1177 38.1177 30 58 30H114" stroke="black" stroke-width="12" stroke-linecap="round"/>
<circle cx="155" cy="37" r="15" stroke="black" stroke-width="12"/>
<path d="M59 119.5L81 90.5L107 109.5L129.5 81.5" stroke="black" stroke-width="12" stroke-linecap="round" stroke-linejoin="round"/>
</svg>
